FINK
CUT[WENN DAS HERZ VOLL ANGST UND LEID]
REG[Europa, Mitteleuropa, Deutschland]
KEY[F1004  16  C 4/4]
MEL[-3__-5-4-3-4  -6_-5_-4_-3_1__.1_  1__-7__
    2__2__  2_-6_-6__-6__-7_1_  1__-7__
    -3__-5-4-3-4  -6_-5_-4_-3_1__.1_  1__-7__
    2__2__  2_-6_-6__-6__-7_1_  1__-7__
    -5__-6_-7_  1__2_3_5_4_4_3_  3__2__
    3__1__  1__-7_-6_-5_1_-7_2_  2__1__ //] >>
FCT[Erbauungs - Lied, religioes]
